X:92
T:Rights of Man
C:Traditional
M:4/4
L:1/8
Q:1/8=410
K:G
GA|:BcAB GAFG|EFGA B2ef|gfed edcB|cBAG A2GA|
BcAB GAFG|EFGA B2ef|gfed Bgf/g/f|1 e2E2 E2GA:|2 e2E2 E2ga|
|:bagf efga|bagf e2g2|fgef defg|afdf a2gf|
eBfB gBaB|bBaB g2ef|gfed Bgf/g/f:|e2E2 E4|
